X:1
T:Title
L:1/8
M:4/4
K:Bb
V:1 treble nm="Grand Piano"
V:1
 z4 z2[Q:1/4=100] GA | BAGF E4 | D6 GA | BAGF E3 D | C6 CD | EDE^F G4 | A6 cB | AG^FG A4 | G6 Bc | %9
 d6 Bc | d6 Bc | d2 ed c2 cB | A6 AB | c6 AB | c6 AB | c2 dc B2 BA | G6 GA | B6 GA | B6 GA | %19
 B2 cB A2 AG | ^F6 DE | D6 DE | D6 DE | D2 D2 BAG^F | G6 dc | B2 Bc d2 dc | B2 Bc d2 dc | %27
 B2 Bc d2 ed | c6 cB | A2 AB c2 cB | A2 AB c2 cB | A2 AB c2 d2 | B6 BA | G2 GA B2 BA | GAGA B2 BA | %35
 GAGA B2 cB | A6 AG | ^F2 FG A2 BA | G6 GA | BAGF E4 | D6 GA | BAGF E3 D | C6 CD | EDE^F G4 | %44
 A6 cB | AG^FG A4 | G6 cB | AG^FE D4 | G6 z2 |] %49

